ui/StatusQ/src/assets/img/icons/tiny/tick-down.svg

<svg fill="none" height="5" viewBox="0 0 8 5" width="8" xmlns="http://www.w3.org/2000/svg"><path clip-rule="evenodd" d="m.46967.71967c.292893-.292893.76777-.292893 1.06066 0l2.11612 2.11612c.19526.19526.51184.19526.7071 0l2.11612-2.11612c.29289-.292893.76777-.292893 1.06066 0 .29289.29289.29289.76777 0 1.06066l-3 3c-.29289.29289-.76777.29289-1.06066 0l-3-3c-.292893-.29289-.292893-.76777 0-1.06066z" fill="#000" fill-rule="evenodd"/></svg>

<svg width="8" height="5" viewBox="0 0 8 5" fill="none" xmlns="http://www.w3.org/2000/svg">
<path fill-rule="evenodd" clip-rule="evenodd" d="M0.46967 0.71967C0.762563 0.426777 1.23744 0.426777 1.53033 0.71967L3.64645 2.83579C3.84171 3.03105 4.15829 3.03105 4.35355 2.83579L6.46967 0.71967C6.76256 0.426777 7.23744 0.426777 7.53033 0.71967C7.82322 1.01256 7.82322 1.48744 7.53033 1.78033L4.53033 4.78033C4.23744 5.07322 3.76256 5.07322 3.46967 4.78033L0.46967 1.78033C0.176777 1.48744 0.176777 1.01256 0.46967 0.71967Z" fill="#000000"/>
</svg>
